dist/images/icons/location.svg

<svg width="40" height="58" viewBox="0 0 40 58" fill="none" xmlns="http://www.w3.org/2000/svg">
<path d="M39.3571 20.3C39.3571 17.6342 38.8481 14.9944 37.8592 12.5315C36.8703 10.0686 35.4207 7.83076 33.5934 5.94573C31.7661 4.0607 29.5968 2.56542 27.2092 1.54525C24.8217 0.525075 22.2628 0 19.6786 0C17.0943 0 14.5354 0.525075 12.1479 1.54525C9.76039 2.56542 7.59104 4.0607 5.76372 5.94573C3.9364 7.83076 2.48688 10.0686 1.49794 12.5315C0.509001 14.9944 -3.8508e-08 17.6342 0 20.3C0 24.3223 1.14979 28.0633 3.1064 31.2185H3.08391L19.6786 58L36.2732 31.2185H36.2536C38.2801 27.9606 39.3573 24.171 39.3571 20.3ZM19.6786 29C17.4418 29 15.2967 28.0834 13.7151 26.4518C12.1334 24.8203 11.2449 22.6074 11.2449 20.3C11.2449 17.9926 12.1334 15.7797 13.7151 14.1482C15.2967 12.5166 17.4418 11.6 19.6786 11.6C21.9153 11.6 24.0605 12.5166 25.6421 14.1482C27.2237 15.7797 28.1122 17.9926 28.1122 20.3C28.1122 22.6074 27.2237 24.8203 25.6421 26.4518C24.0605 28.0834 21.9153 29 19.6786 29Z" fill="#00B9BB"/>
<rect x="8.2854" y="8.28613" width="23.5135" height="30.2317" rx="10" fill="#00B9BB"/>
<path d="M11.7138 30.123V27.8274H13.2338V28.2275H12.1992V28.7746H13.1329V29.1747H12.1992V30.123H11.7138ZM14.0456 27.8274V30.123H13.5603V27.8274H14.0456ZM14.9001 27.8274L15.363 28.6098H15.3809L15.8461 27.8274H16.3943L15.6937 28.9752L16.41 30.123H15.8517L15.3809 29.3395H15.363L14.8922 30.123H14.3362L15.0547 28.9752L14.3497 27.8274H14.9001ZM18.127 30.1567C17.9685 30.1567 17.8318 30.1283 17.7167 30.0715C17.6016 30.0147 17.5131 29.9377 17.451 29.8406C17.3898 29.7427 17.3591 29.6336 17.3591 29.5133C17.3591 29.4236 17.3771 29.344 17.4129 29.2745C17.4488 29.205 17.4989 29.1411 17.5631 29.0828C17.6274 29.0238 17.7021 28.9651 17.7873 28.9068L18.2323 28.6143C18.2899 28.5776 18.3321 28.5392 18.359 28.4988C18.3859 28.4577 18.3993 28.4132 18.3993 28.3654C18.3993 28.3198 18.381 28.2776 18.3444 28.2387C18.3078 28.1999 18.2559 28.1808 18.1886 28.1816C18.1438 28.1816 18.1049 28.1917 18.072 28.2118C18.0392 28.2313 18.0134 28.2571 17.9947 28.2892C17.9768 28.3206 17.9678 28.3557 17.9678 28.3946C17.9678 28.4424 17.9812 28.491 18.0081 28.5403C18.035 28.5896 18.0709 28.6419 18.1158 28.6972C18.1606 28.7518 18.2095 28.8108 18.2626 28.8743L19.351 30.123H18.8533L17.9454 29.112C17.8856 29.044 17.8258 28.973 17.766 28.899C17.707 28.8243 17.6577 28.745 17.6181 28.6613C17.5784 28.5769 17.5586 28.4854 17.5586 28.3867C17.5586 28.2754 17.5844 28.1752 17.636 28.0863C17.6883 27.9974 17.7615 27.9271 17.8557 27.8756C17.9499 27.8233 18.0597 27.7971 18.1852 27.7971C18.3078 27.7971 18.4135 27.8221 18.5025 27.8722C18.5922 27.9215 18.6609 27.9873 18.7087 28.0695C18.7573 28.1509 18.7816 28.2406 18.7816 28.3385C18.7816 28.4469 18.7547 28.5451 18.7009 28.6333C18.6478 28.7208 18.5731 28.7992 18.4767 28.8687L18.0081 29.2061C17.9446 29.2525 17.8975 29.2999 17.8669 29.3485C17.837 29.3963 17.8221 29.4423 17.8221 29.4864C17.8221 29.5409 17.8355 29.5899 17.8624 29.6332C17.8893 29.6765 17.9274 29.7109 17.9768 29.7363C18.0261 29.761 18.084 29.7733 18.1505 29.7733C18.2312 29.7733 18.3108 29.755 18.3893 29.7184C18.4685 29.681 18.5402 29.6283 18.6045 29.5603C18.6695 29.4916 18.7214 29.4101 18.7603 29.316C18.7992 29.2218 18.8186 29.1176 18.8186 29.0032H19.2143C19.2143 29.1437 19.199 29.2704 19.1683 29.3832C19.1377 29.4953 19.0951 29.5932 19.0405 29.6769C18.986 29.7599 18.9236 29.8279 18.8533 29.8809C18.8309 29.8951 18.8092 29.9086 18.7883 29.9213C18.7674 29.934 18.7457 29.9474 18.7233 29.9616C18.6381 30.0304 18.5428 30.0801 18.4375 30.1107C18.3328 30.1414 18.2293 30.1567 18.127 30.1567Z" fill="white"/>
<path d="M20.2895 30.123V27.8274H21.8095V28.2275H20.7749V28.7746H21.7086V29.1747H20.7749V30.123H20.2895ZM22.136 30.123V27.8274H22.6214V29.7229H23.6056V30.123H22.136ZM24.4123 27.8274V30.123H23.927V27.8274H24.4123ZM24.8117 30.123V27.8274H25.7174C25.8915 27.8274 26.0399 27.8606 26.1624 27.9271C26.285 27.9929 26.3784 28.0844 26.4426 28.2018C26.5077 28.3183 26.5402 28.4528 26.5402 28.6053C26.5402 28.7577 26.5073 28.8923 26.4415 29.0088C26.3758 29.1254 26.2805 29.2162 26.1557 29.2812C26.0316 29.3462 25.8814 29.3787 25.7051 29.3787H25.1278V28.9898H25.6266C25.72 28.9898 25.797 28.9737 25.8575 28.9416C25.9188 28.9087 25.9644 28.8635 25.9943 28.8059C26.0249 28.7477 26.0402 28.6808 26.0402 28.6053C26.0402 28.5291 26.0249 28.4626 25.9943 28.4058C25.9644 28.3482 25.9188 28.3038 25.8575 28.2724C25.7962 28.2402 25.7185 28.2242 25.6244 28.2242H25.297V30.123H24.8117Z" fill="#042323"/>
<path fill-rule="evenodd" clip-rule="evenodd" d="M12.2854 11.7529V26.5016H16.2894V23.7439L14.9174 22.0711L16.3097 20.3355V20.7404H19.5349V17.5141H16.2894V14.9792H22.6555V11.7529H12.2854Z" fill="white"/>
<path fill-rule="evenodd" clip-rule="evenodd" d="M27.6589 26.5156V11.767H23.6549V14.5247L25.027 16.1975L23.6347 17.9331V17.5282H20.4094V20.7544H23.6549V23.2894H17.2888V26.5156H27.6589Z" fill="#042323"/>
<line x1="26.3727" y1="19.1717" x2="26.1438" y2="19.1717" stroke="#042323" stroke-width="0.0368294"/>
</svg>

<svg width="40" height="58" fill="none" xmlns="http://www.w3.org/2000/svg"><path d="M39.357 20.3a20.86 20.86 0 00-1.498-7.769 20.354 20.354 0 00-4.266-6.585 19.649 19.649 0 00-6.384-4.4A19.157 19.157 0 0019.68 0c-2.585 0-5.144.525-7.531 1.545a19.65 19.65 0 00-6.384 4.4 20.354 20.354 0 00-4.266 6.586A20.858 20.858 0 000 20.3c0 4.022 1.15 7.763 3.106 10.918h-.022L19.679 58l16.594-26.782h-.02A20.683 20.683 0 0039.358 20.3zM19.68 29a8.305 8.305 0 01-5.964-2.548 8.84 8.84 0 01-2.47-6.152 8.84 8.84 0 012.47-6.152A8.305 8.305 0 0119.68 11.6c2.236 0 4.382.917 5.963 2.548a8.841 8.841 0 012.47 6.152c0 2.307-.888 4.52-2.47 6.152A8.305 8.305 0 0119.68 29z" fill="#00B9BB"/><rect x="8.285" y="8.286" width="23.514" height="30.232" rx="10" fill="#00B9BB"/><path d="M11.714 30.123v-2.296h1.52v.4h-1.035v.548h.934v.4h-.934v.948h-.485zm2.332-2.296v2.296h-.486v-2.296h.486zm.854 0l.463.783h.018l.465-.783h.548l-.7 1.148.716 1.148h-.558l-.471-.784h-.018l-.47.784h-.557l.719-1.148-.705-1.148h.55zm3.227 2.33a.918.918 0 01-.41-.085.605.605 0 01-.304-.797.682.682 0 01.15-.192c.064-.06.14-.118.224-.176l.445-.293a.42.42 0 00.127-.115.239.239 0 00.04-.134.182.182 0 00-.055-.126c-.036-.04-.088-.058-.155-.057a.22.22 0 00-.194.107.209.209 0 00-.027.106.3.3 0 00.04.145c.027.05.063.102.108.157.045.055.093.114.147.177l1.088 1.249h-.498l-.908-1.011a6.688 6.688 0 01-.179-.213 1.235 1.235 0 01-.148-.238.637.637 0 01.018-.575.562.562 0 01.22-.21.668.668 0 01.33-.079.64.64 0 01.317.075.524.524 0 01.279.466.555.555 0 01-.081.295.812.812 0 01-.224.236l-.469.337a.54.54 0 00-.141.143.26.26 0 00-.005.284.284.284 0 00.115.103c.05.025.107.037.174.037a.56.56 0 00.238-.055.71.71 0 00.216-.158.791.791 0 00.214-.557h.395c0 .14-.015.267-.046.38a1.03 1.03 0 01-.127.294.806.806 0 01-.188.204 4.048 4.048 0 01-.13.08.81.81 0 01-.285.15 1.1 1.1 0 01-.311.046z" fill="#fff"/><path d="M20.29 30.123v-2.296h1.52v.4h-1.035v.548h.934v.4h-.934v.948h-.485zm1.846 0v-2.296h.485v1.896h.985v.4h-1.47zm2.276-2.296v2.296h-.485v-2.296h.485zm.4 2.296v-2.296h.905c.175 0 .323.034.445.1a.675.675 0 01.28.275.813.813 0 01.098.403.807.807 0 01-.098.404.68.68 0 01-.286.272.96.96 0 01-.45.098h-.578v-.39h.499a.49.49 0 00.23-.047.32.32 0 00.137-.136.425.425 0 00.046-.2.414.414 0 00-.046-.2.307.307 0 00-.136-.134.499.499 0 00-.234-.048h-.327v1.899h-.485z" fill="#042323"/><path fill-rule="evenodd" clip-rule="evenodd" d="M12.285 11.753v14.749h4.004v-2.758l-1.372-1.673 1.393-1.736v.405h3.225v-3.226h-3.246V14.98h6.366v-3.226h-10.37z" fill="#fff"/><path fill-rule="evenodd" clip-rule="evenodd" d="M27.659 26.516V11.767h-4.004v2.758l1.372 1.673-1.392 1.735v-.405h-3.226v3.226h3.246v2.535h-6.366v3.227h10.37z" fill="#042323"/><path stroke="#042323" stroke-width=".037" d="M26.373 19.172h-.229"/></svg>
